public/assets/standards/sci-ai/explore-feat-icon-3.svg

<svg width="55" height="55" viewBox="0 0 55 55" fill="none" xmlns="http://www.w3.org/2000/svg">
<path d="M25.7301 4.95C36.7101 4.95 45.6501 13.89 45.6501 24.87C45.6501 35.85 36.7101 44.79 25.7301 44.79C14.7501 44.79 5.81011 35.86 5.81011 24.87C5.81011 13.88 14.7501 4.95 25.7301 4.95ZM25.7301 0.5C12.2701 0.5 1.36011 11.41 1.36011 24.87C1.36011 38.33 12.2701 49.24 25.7301 49.24C39.1901 49.24 50.1001 38.33 50.1001 24.87C50.1001 11.41 39.1901 0.5 25.7301 0.5Z" fill="#ACCA53"/>
<path d="M44.7699 24.87C44.7699 24.87 36.2499 37.02 25.7299 37.02C15.2099 37.02 6.68994 24.87 6.68994 24.87C6.68994 24.87 15.2099 12.72 25.7299 12.72C36.2499 12.72 44.7699 24.87 44.7699 24.87Z" fill="#006D68"/>
<path d="M25.73 31.4401C29.4193 31.4401 32.41 28.4493 32.41 24.7601C32.41 21.0708 29.4193 18.0801 25.73 18.0801C22.0408 18.0801 19.05 21.0708 19.05 24.7601C19.05 28.4493 22.0408 31.4401 25.73 31.4401Z" fill="white"/>
<path d="M42.14 39.48C41.24 39.48 40.34 39.82 39.65 40.51C38.27 41.89 38.27 44.12 39.65 45.49L47.62 53.46C48.31 54.15 49.21 54.49 50.11 54.49C51.01 54.49 51.91 54.15 52.6 53.46C53.98 52.08 53.98 49.85 52.6 48.48L44.63 40.51C43.94 39.82 43.04 39.48 42.14 39.48Z" fill="#ACCA53"/>
</svg>

<svg xmlns="http://www.w3.org/2000/svg" width="55" height="55" fill="none" viewBox="0 0 55 55"><path fill="#acca53" d="M25.73 4.95c10.98 0 19.92 8.94 19.92 19.92s-8.94 19.92-19.92 19.92S5.81 35.86 5.81 24.87 14.75 4.95 25.73 4.95m0-4.45C12.27.5 1.36 11.41 1.36 24.87s10.91 24.37 24.37 24.37S50.1 38.33 50.1 24.87 39.19.5 25.73.5"/><path fill="#006d68" d="M44.77 24.87s-8.52 12.15-19.04 12.15S6.69 24.87 6.69 24.87s8.52-12.15 19.04-12.15 19.04 12.15 19.04 12.15"/><path fill="#fff" d="M25.73 31.44a6.68 6.68 0 1 0 0-13.36 6.68 6.68 0 0 0 0 13.36"/><path fill="#acca53" d="M42.14 39.48c-.9 0-1.8.34-2.49 1.03a3.513 3.513 0 0 0 0 4.98l7.97 7.97c.69.69 1.59 1.03 2.49 1.03s1.8-.34 2.49-1.03a3.513 3.513 0 0 0 0-4.98l-7.97-7.97a3.5 3.5 0 0 0-2.49-1.03"/></svg>
